X:540
T: Menacing Pigeon [The]
C: BB
M: C|
L: 1/8
Q: 1/8=320
R: hornpipe
K: D
D|"D"FEFG ABAF|"D"DFAd fafd|"G"gfeg "D"fedc|"Bm7"dBAF "A"GECE|
"D"FEFG ABAF|"D"DFAd fafd|"G"gabg "D"(3fga fd|"A"ecAc "D"d3 :|
e|"D"faef "G"dcde|"Bm"fdBc "D"d2 ef|"G"g2 bg "D"f2 af|"Em"efgf "A"e3 A|
"D"FEFG ABAF|"D"DFAd "Bm"fdBd|"Em7"gfed "D"(3fga fd|"A"ecAc "D"d3 :|
%%%%%%%%%%%%%%%%%%%%%%%%%%%%%%%%%%%%%%%%%%%
